X:1
T:Seaside thoughts - Sullivan
T:#
%%score [ 1 2 3 4 ]
L:1/8
Q:1/4=84
M:3/4
K:G
V:1 treble nm="Soprano" snm="S"
V:2 treble nm="Alto" snm="A"
V:3 treble-8 nm="Tenor" snm="T"
V:4 bass nm="Bass" snm="B"
V:1
"^Bernard Bartram""^risoluto"!mf!"^Seaside Thoughts" D>D DB,!<(! DG!<)! |!>(! B2 A2 A>!>)!B | %2
w: Beau- ti- ful, sub- lime and|glo- rious, Wild, ma-|
 c3 B"^Sir Arthur Sullivan\n(1842-1900)" AE | (=G2 F2) F>F |!<(! E3 F G!<)!B |!>(! B2 ^A2!>)! BF | %6
w: jest- ic, foam- ing|free, * O- ver|time it- self vic-|to- rious, Im- age|
 D3 D FF | B,6 |!p! A>A ^GA BA | A2 =G2 GA | B3 B BB | B6 | B^G EG Bd | d2 c2 BA | %14
w: of e- ter- ni-|ty.|Sun and moon and stars shine|o'er thee, See thy|sur- face ebb and|flow;|Yet, at- tempt not to ex-|plore thee In thy|
 =G3!<(! G A>A!<)! |!>(! (A4 B2)!>)! |!mf! B^G E!<(!G Bd!<)! |!>(! d2 c2!>)! BA | =G3 G B>A | G6 | %20
w: sound- less depths be-|low, *|Yet, at- tempt not to ex-|plore thee In thy|sound- less depths be-|low.|
 d>d cB AB | c2 E2 AG | F3 F GA | B6 | d>d cB AB | c2 E2 AG | F3 F B>A | %27
w: Sun and moon and stars shine|o'er thee, See thy|sur- face ebb and|flow,|Yet at- tempt not to ex-|plore thee In thy|sound- less depths be-|
 (A2[Q:1/4=56] !fermata!G4) ||!mf![Q:1/4=84] D>D D!<(!B, DG!<)! | B2 A2 A>B |!>(! c3 B A!>)!E | %31
w: low. *|Whe- ther morn- ing's splend- ours|steep thee With the|rain- bow's glow- ing|
 (=G2 F2) F>F |!<(! E3 F G!<)!B | B2 ^A2 BF | D3!>(! D FF!>)! | B,6 |!p! A>A ^GA BA | A2 =G2 GA | %38
w: grace, * Tem- pests|rouse or na- vies|sweep thee, 'Tis but|for a mo- ment's|space.|Earth, her val- leys and her|moun- tains, Mor- tal|
!<(! B3 B B!<)!B |!>(! B4 B!>)!B | (B^G E)!<(!G Bd!<)! | d2 c2 BA | G3 G A>A | A4 BB | %44
w: man's be- hests o-|bey, The un-|fa\- * * thom- a- ble|foun- tains Scoff his|search and scorn his|sway, The un-|
 (B^G E)G Bd | d2 c2 BA | G3 G B>A | G6 |!mf! d>d cB AB | c2 E2 AG | F3 F GA | B4 dd | %52
w: fa\- * * thom- a- ble|foun- tains Scoff his|search and scorn his|sway,|Earth, her val- leys and her|moun- tains, Mor- tal|man's be- hest o-|bey, The un-|
"^dim." (d2 c)B AB | c2 E2 AG |!pp! F3 F BA | (A2[Q:1/4=56] !fermata!G4) || %56
w: fa\- * thom- a- ble|foun- tains Scoff his|search and scorn his|sway. *|
!f![Q:1/4=84] D>D DB, DG | B2 A2 A>B | c3 B AG | (G2 F2) FF |!<(! E3 F G!<)!B | B2 ^A2"^dim." BF | %62
w: Such art thou, stu- pen- dous|o- cean! But if|o- ver- whelm'd by|thee, * Can we|think with- out e-|mo- tion, What must|
 D3 D FF |!p! B,6 | A>A!<(! AD FA!<)! |!>(! d2 B4!>)! |!<(! A>A AD!<)! FA |!>(! d6!>)! | %68
w: thy Cre- a- tor|be!|Such art thou, stu- pen- dous|o- cean!|But if o- ver- whelm'd by|thee,|
!p! d>d cB AG | c2"^affettuoso" E2 BA | G3 G AA | (A4 B2) |"^cresc." d>d cB AG | c2 E2 z2 | %74
w: Can we think with- out e-|mo- tion, What must|thy Cre- a- tor|be, *|Can we think with- out e-|mo- tion,|
!f![Q:1/4=84] F[Q:1/4=82] z[Q:1/4=80] z[Q:1/4=78] !>!F[Q:1/4=76] !>!B[Q:1/4=74]!>!A | %75
w: What must thy Cre-|
[Q:1/4=72] !>!A>[Q:1/4=71]G[Q:1/4=70] !fermata!G4 |] %76
w: a- tor be!|
V:2
!mf! D>D D!<(!B, DG!<)! |!>(! G2 F2 E>!>)!^G | A3 ^G AE | (E2 ^D2) D>D |!<(! E3 ^D E!<)!G | %5
w: Beau- ti- ful, sub- lime and|glo- rious, Wild, ma-|jest- ic, foam- ing|free, * O- ver|time it- self vic-|
!>(! F2 F2!>)! F=D | B,3 B, ^CC | B,6 |!p! F>F FF FF | F2 G2 GF | G3 G AG | F4 FF | E2 E2 E^G | %13
w: to- rious, Im- age|of e- ter- ni-|ty.|Sun and moon and stars shine|o'er thee, See thy|sur- face ebb and|flow; Yet, at-|tempt not to ex-|
 ^G2 A2 GA | D3!<(! D F>F!<)! | F4!mf! GG | ^G2!<(! B,2 EG!<)! |!>(! ^G2 A2!>)! EE | D3 D F>F | %19
w: plore thee In thy|sound- less depths be-|low. Yet at-|tempt not to ex-|plore thee In thy|sound- less depths be-|
 G2 D2 D2 | =F6 | (E4 _E2) | D4 D2 | D4 G2 | =F4 F2 | E4 _E2 | D4 F2 | (F2 !fermata!G4) || %28
w: low. Yet at-|tempt|not *|to ex-|plore thee|In thy|sound- less|depths be-|low. *|
!mf! D>D D!<(!B, DG!<)! | G2 F2 E>^G |!>(! A3 ^G A!>)!E | (E2 ^D2) D>D |!<(! E3 ^D E!<)!G | %33
w: Whe- ther morn- ing's splend- ours|steep thee With the|rain- bow's glow- ing|grace, * Tem- pests|rouse or na- vies|
 F2 F2 F=D | B,3!>(! B, ^CC!>)! | B,6 |!p! F>F FF FF | F2 G2 GF |!<(! G3 G A!<)!G |!>(! F4 F!>)!F | %40
w: sweep thee, 'Tis but|for a mo- ment's|space.|Earth, her val- leys and her|moun- tains, Mor- tal|man's be- hests o-|bey, The un-|
 E2!<(! E2 E^G!<)! | ^G2 A2 GA | D3 D F>F | F4 GG | ^G2 B,2 EG | ^G2 A2 EE | D3 D F>F | %47
w: fa- thom- a- ble|foun- tains Scoff his|search and scorn his|sway, The un-|fa- thom- a- ble|foun- tains Scoff his|search and scorn his|
 G2!mf! D2 D2 | =F6 | (E4 _E2) | D4 D2 | D4 G2 |"^dim." =F4 F2 | E4 _E2 |!pp! D4 F2 | %55
w: sway, The un-|fa-|thom\- *|a- ble|foun- tains|Scoff his|search and|scorn his|
 (F2 !fermata!G4) ||!f! D>D DB, DG | D2 D2 E>^G | A3 =G FE | (E2 ^D2) DD |!<(! E3 ^D E!<)!G | %61
w: sway. *|Such art thou, stu- pen- dous|o- cean! But if|o- ver- whelm'd by|thee, * Can we|think with- out e-|
 F2 F2"^dim." F=D | B,3 B, ^CC |!p! B,6 | F>F!<(! FD FF!<)! |!>(! G2 G4!>)! |!<(! F>F FD!<)! FF | %67
w: mo- tion, What must|thy Cre- a- tor|be!|Such art thou, stu- pen- dous|o- cean!|But if o- ver- whelm'd by|
!>(! G6!>)! |!p! =F>F FF FF | E2"^affettuoso" E2 _EE | D3 D FF | (F4 G2) |"^cresc." =F>F FF FF | %73
w: thee,|Can we think with- out e-|mo- tion, What must|thy Cre- a- tor|be, *|Can we think with- * out~e-|
 E2 E2 z2 |!f! D z z !>!D !>!F!>!F | !>!F>G !fermata!G4 |] %76
w: mo- tion,|What must * thy~Cre-|a- tor be!|
V:3
!mf! B>B B!<(!G Bd!<)! |!>(! d2 d2 e>!>)!e | e3 e ee | (e2 B2) B>B |!<(! B3 B B!<)!e | %5
w: Beau- ti- ful, sub- lime and|glo- rious, Wild, ma-|jest- ic, foam- `ing|free, * O- ver|time it- self vic-|
!>(! ^c2 c2!>)! BB | B3 B ^AA | B6 |!p! d>d dd dd | d2 d2 dd | d3 d ^de | B4 BB | B2 d2 Be | %13
w: to- rious, Im- age|of e- ter- ni-|ty.|Sun and moon and stars shine|o'er thee, See thy|sur- face ebb and|flow; Yet, at-|tempt not to ex-|
 e2 e2 ee | B3!<(! B d>d!<)! | d2!mf! d2 d2 | d2!<(! d2 Be!<)! |!>(! e2 e2!>)! dc | B3 B c>c | B6 | %20
w: plore thee In thy|sound- less depths be-|low, Yet at-|tempt not to ex-|plore thee In thy|sound- less depths be-|low.|
 B4 d2 | c4 c2 | c4 c2 | B4 d2 | d4 d2 | c4 c2 | c4 c2 | (c2 !fermata!B4) || %28
w: Yet at-|tempt not|to ex-|plore thee|In thy|sound- less|depths be-|low. *|
!mf! B>B B!<(!G Bd!<)! | d2 d2 e>e |!>(! e3 e e!>)!e | (e2 B2) B>B |!<(! B3 B B!<)!e | ^c2 c2 BB | %34
w: Whe- ther morn- ing's splend- ours|steep thee With the|rain- bow's glow- ing|grace, * Tem- pests|rouse or na- vies|sweep thee, 'Tis but|
 B3!>(! B ^AA!>)! | B6 |!p! d>d dd dd | d2 d2 dd |!<(! d3 d ^d!<)!e |!>(! B4 B!>)!B | %40
w: for a mo- ment's|space.|Earth, her val- leys and her|moun- tains, Mor- tal|man's be- hests o-|bey, The un-|
 B2!<(! d2 Be!<)! | e2 e2 ee | B3 B d>d | d2 d2 d2 | d2 d2 Be | e2 e2 dc | B3 B c>c | B6 | %48
w: fa- thom- a- ble|foun- tains Scoff his|search and scorn his|sway, The un-|fa- thom- a- ble|foun- tains Scoff his|search and scorn his|sway,|
!mf! B4 d2 | c4 c2 | c4 c2 | B4 d2 |"^dim." d4 d2 | c4 c2 |!pp! c4 c2 | (c2 !fermata!B4) || %56
w: The un-|fa- thom-|a- ble|foun- tains|Scoff his|search and|scorn his|sway. *|
!f! B>B BG Bd | g2 f2 e>e | e3 e cc | B4 BB |!<(! B3 B B!<)!e | ^c2 c2"^dim." BB | B3 B ^AA | %63
w: Such art thou, stu- pen- dous|o- cean! But if|o- ver- whelm'd by|thee, Can we|think with- out e-|mo- tion, What must|thy Cre- a- tor|
!p! B6 | d>d!<(! dd dd!<)! |!>(! d4 d2!>)! |!<(! d>d dd!<)! dd |!>(! d6!>)! |!p! B>B AB BB | %69
w: be!|Such art thou, stu- pen- dous|o- cean!|But if o- ver- whelm'd by|thee,|Can we think with- out e-|
 c2"^affettuoso" c2 cc | B3 B dd | d6 |"^cresc." B>B AB BB | c2 c2 z2 |!f! A z z !>!A !>!d!>!c | %75
w: mo- tion, What must|thy Cre- a- tor|be,|Can we think with- out e-|mo- tion,|What must thy Cre-|
 !>!c>B !fermata!B4 |] %76
w: a- tor be!|
V:4
!mf! G,>G, G,!<(!G, G,B,!<)! |!>(! D2 D2 C>!>)!B, | A,3 B, CC | B,4 A,>A, |!<(! G,3 F, E,!<)!E, | %5
w: Beau- ti- ful, sub- lime and|glo- rious, Wild, ma-|jest- ic, foam- ing|free, O- ver|time it- self vic-|
!>(! E,2 E,2!>)! D,D, | F,3 F, F,F, | B,6 |!p! C>C CC CC | C2 B,2 B,A, | G,3 G, F,E, | ^D,4 D,D, | %12
w: to- rious. Im- age|of e- ter- ni-|ty.|Sun and moon and stars shine|o'er thee, See thy|sur- face ebb and|flow; Yet, at-|
 E,2 E,2 E,E, | E,2 A,2 B,C | D,3!<(! D, D,>D,!<)! | D,4!mf! G,G, | E,2!<(! E,2 E,E,!<)! | %17
w: tempt not to ex-|plore thee In thy|sound- less depths be-|low, Yet, at-|tempt not to ex-|
!>(! E,2 A,2!>)! B,C | D,3 D, D,>D, | G,6 | G,6 | G,6 | G,6 | G,6 | G,6 | G,6 | G,6- | %27
w: plore thee In thy|sound- less depths be-|low,|in|thy|sound-|less|depths|be-|low.|
 !fermata!G,6 ||!mf! G,>G, G,!<(!G, G,B,!<)! | D2 D2 C>B, |!>(! A,3 B, C!>)!C | B,4 A,>A, | %32
w: |Whe- ther morn- ing's splend- ours|steep thee With the|rain- bow's glow- ing|grace, Tem- pests|
!<(! G,3 F, E,!<)!E, | E,2 E,2 D,D, | F,3!>(! F, F,F,!>)! | B,6 |!p! C>C CC CC | C2 B,2 B,A, | %38
w: rouse or na- vies|sweep thee, 'Tis but|for a mo- ment's|space.|Earth, her val- leys and her|moun- tains, Mor- tal|
!<(! G,3 G, F,!<)!E, |!>(! ^D,4 D,!>)!D, | E,2!<(! E,2 E,E,!<)! | E,2 A,2 B,C | D,3 D, D,>D, | %43
w: man's be- hests o-|bey, The un-|fa- thom- a- ble|foun- tains Scoff his|search and scorn his|
 D,4 G,G, | E,2 E,2 E,E, | E,2 A,2 B,C | D,3 D, D,>D, | G,6 |!mf! G,6 | G,6 | G,6 | G,6 | %52
w: sway, The un-|fa- thom- a- ble|foun- tains Scoff his|search and scorn his|sway,|Scoff|his|search|and|
"^dim." G,6 | G,6 |!pp! G,6- | !fermata!G,6 ||!f! G,>G, G,G, G,B, | D2 D2 C>B, | A,3 B, CA, | %59
w: scorn|his|sway.||Such art thou, stu- pen- dous|o- cean! But if|o- ver- whelm'd by|
 B,4 A,A, |!<(! G,3 F, E,!<)!E, | E,2 E,2"^dim." D,D, | F,3 F, F,F, |!p! B,6 | C>C!<(! CC CC!<)! | %65
w: thee, Can we|think with- out e-|mo- tion, What must|thy Cre- a- tor|be!|Such art thou, stu- pen- dous|
!>(! B,2 B,4!>)! |!<(! C>C CC!<)! CC |!>(! B,6!>)! |!p! G,>G, G,G, G,G, | %69
w: o- cean!|But if o- ver- whelm'd by|thee,|Can we think with- out e-|
 C,2"^affettuoso" C,2 C,C, | D,3 D, D,D, | (D,4 G,2) |"^cresc." G,>G, G,G, G,G, | C,2 C,2 z2 | %74
w: mo- tion, What must|thy Cre- a- tor|be, *|Can we think with- out e-|mo- tion,|
!f! D, z z !>!D, !>!D,!>!D, | !>!G,>G, !fermata!G,4 |] %76
w: What must thy Cre-|a- tor be!|

